brandFactory_export/3.Masa/Tijeras cortar_3Masa.svg

<?xml version="1.0" encoding="UTF-8"?>
<svg width="24px" height="24px" viewBox="0 0 24 24" version="1.1" xmlns="http://www.w3.org/2000/svg" xmlns:xlink="http://www.w3.org/1999/xlink">
    <title>3.Masa/Tijeras cortar_3Masa</title>
    <g id="Symbols" stroke="none" stroke-width="1" fill="none" fill-rule="evenodd">
        <g id="3.Masa/Tijeras-cortar_3Masa" fill="#5CB615" fill-rule="nonzero">
            <path d="M19.1092437,20.1915966 C19.8756303,20.1915966 20.1210084,19.9563025 20.1210084,19.2201681 C20.1210084,18.4840336 19.8756303,18.2453782 19.1092437,18.2453782 C18.3462185,18.2453782 18.1008403,18.4840336 18.1008403,19.2201681 C18.1008403,19.9563025 18.3462185,20.1915966 19.1092437,20.1915966 Z M19.1092437,17.2739496 C20.3831933,17.2739496 21.1294118,17.8957983 21.1294118,19.2201681 C21.1294118,20.5445378 20.3865546,21.1663866 19.1092437,21.1663866 C17.8352941,21.1663866 17.092437,20.5478992 17.092437,19.2201681 C17.092437,17.892437 17.8319328,17.2739496 19.1092437,17.2739496 Z M4.67226891,20.1445378 C5.43529412,20.1445378 5.68067227,19.9092437 5.68067227,19.1731092 C5.68067227,18.4369748 5.43529412,18.1983193 4.67226891,18.1983193 C3.9092437,18.1983193 3.66386555,18.4336134 3.66386555,19.1731092 C3.66386555,19.9092437 3.9092437,20.1445378 4.67226891,20.1445378 Z M4.67226891,17.2268908 C5.94621849,17.2268908 6.68907563,17.8487395 6.68907563,19.1731092 C6.68907563,20.497479 5.94621849,21.1193277 4.67226891,21.1193277 C3.39831933,21.1193277 2.65546218,20.497479 2.65546218,19.1731092 C2.65546218,17.8453782 3.39831933,17.2268908 4.67226891,17.2268908 Z M19.0319328,22.1647059 C21.2201681,22.1647059 22.1109244,21.297479 22.1109244,19.1966387 C22.1109244,17.0857143 21.2235294,16.2184874 19.0319328,16.2184874 C16.8436975,16.2184874 15.9428571,17.0823529 15.9428571,19.1966387 C15.9428571,21.297479 16.8436975,22.1647059 19.0319328,22.1647059 Z M10.8504202,12.2117647 C11.2268908,12.2117647 11.4453782,12.0235294 11.4453782,11.6235294 C11.4453782,11.2369748 11.2268908,11.0487395 10.8504202,11.0487395 C10.4605042,11.0487395 10.2420168,11.2369748 10.2420168,11.6235294 C10.2386555,12.0235294 10.4571429,12.2117647 10.8504202,12.2117647 Z M4.60168067,22.0773109 C6.78991597,22.0773109 7.68067227,21.2201681 7.68067227,19.1092437 C7.68067227,16.9983193 6.79327731,16.1310924 4.60168067,16.1310924 C2.41008403,16.1310924 1.51260504,16.994958 1.51260504,19.1092437 C1.51260504,21.2201681 2.41344538,22.0773109 4.60168067,22.0773109 Z M19.0319328,14.7596639 C21.9394958,14.7596639 23.6235294,16.1714286 23.6235294,19.1966387 C23.6235294,22.2151261 21.9394958,23.6235294 19.0319328,23.6235294 C16.1243697,23.6235294 14.4302521,22.2117647 14.4302521,19.1966387 C14.4302521,18.6151261 14.5210084,18.107563 14.6420168,17.6504202 C13.8655462,15.7243697 12.7361345,14.6621849 11.2739496,14.4705882 C11.0621849,14.5378151 10.8403361,14.6352941 10.6487395,14.7529412 C9.98319328,15.1731092 9.40840336,15.8823529 8.83361345,16.9815126 C8.83361345,16.9915966 8.82352941,16.9915966 8.82352941,17.0016807 C9.06554622,17.5966387 9.19663866,18.2857143 9.19663866,19.112605 C9.19663866,22.1277311 7.49915966,23.5394958 4.60504202,23.5394958 C1.69747899,23.5394958 0.00336134454,22.1277311 0.00336134454,19.112605 C0.00336134454,16.097479 1.69747899,14.6756303 4.60504202,14.6756303 C4.95798319,14.6756303 5.30084034,14.7058824 5.62352941,14.7428571 C5.64369748,14.7226891 5.64369748,14.6957983 5.66386555,14.6756303 L7.92268908,12.5042017 L2.21176471,7.00504202 C1.09915966,5.92605042 0.416806723,4.83361345 0.194957983,3.75462185 C-0.0773109244,2.4605042 0.336134454,1.23361345 1.39495798,0.221848739 C1.68739496,-0.0705882353 2.17142857,-0.0705882353 2.46386555,0.211764706 L11.6067227,8.9512605 L20.6588235,0.221848739 C20.9613445,-0.0705882353 21.4352941,-0.0705882353 21.7277311,0.221848739 C22.7865546,1.23361345 23.2,2.4605042 22.9277311,3.75462185 C22.7058824,4.83361345 22.0302521,5.92605042 20.9109244,7.00504202 L15.2605042,12.4436975 L17.794958,14.8672269 C18.1848739,14.8067227 18.5882353,14.7596639 19.0319328,14.7596639 Z" id="Tijeras-cortar_3Masa"></path>
        </g>
    </g>
</svg>

<svg width="24" height="24" viewBox="0 0 24 24" xmlns="http://www.w3.org/2000/svg"><path d="M19.11 20.192c.766 0 1.011-.236 1.011-.972s-.245-.975-1.012-.975c-.763 0-1.008.239-1.008.975s.245.972 1.008.972zm0-2.918c1.273 0 2.02.622 2.02 1.946 0 1.325-.743 1.946-2.02 1.946-1.275 0-2.018-.618-2.018-1.946 0-1.328.74-1.946 2.017-1.946zm-14.438 2.87c.763 0 1.009-.235 1.009-.97 0-.737-.246-.976-1.009-.976-.763 0-1.008.236-1.008.975 0 .736.245.972 1.008.972zm0-2.917c1.274 0 2.017.622 2.017 1.946 0 1.324-.743 1.946-2.017 1.946s-2.017-.622-2.017-1.946c0-1.328.743-1.946 2.017-1.946zm14.36 4.938c2.188 0 3.079-.868 3.079-2.968 0-2.111-.887-2.979-3.08-2.979-2.187 0-3.088.864-3.088 2.979 0 2.1.9 2.968 3.089 2.968zm-8.182-9.953c.377 0 .595-.188.595-.588 0-.387-.218-.575-.595-.575-.39 0-.608.188-.608.575-.003.4.215.588.608.588zm-6.248 9.865c2.188 0 3.079-.857 3.079-2.968 0-2.11-.888-2.978-3.08-2.978-2.19 0-3.088.864-3.088 2.978 0 2.111.9 2.968 3.089 2.968zm14.43-7.317c2.907 0 4.592 1.411 4.592 4.437 0 3.018-1.685 4.427-4.592 4.427-2.908 0-4.602-1.412-4.602-4.427 0-.582.091-1.09.212-1.547-.776-1.926-1.906-2.988-3.368-3.18a2.902 2.902 0 00-.625.283c-.666.42-1.24 1.13-1.815 2.229 0 .01-.01.01-.01.02.242.595.373 1.284.373 2.11 0 3.016-1.698 4.427-4.592 4.427-2.908 0-4.602-1.411-4.602-4.426 0-3.016 1.694-4.437 4.602-4.437.353 0 .696.03 1.019.067.02-.02.02-.047.04-.067l2.259-2.172-5.711-5.499C1.099 5.926.417 4.834.195 3.755-.077 2.46.336 1.234 1.395.222a.77.77 0 011.069-.01l9.143 8.74 9.052-8.73a.76.76 0 011.069 0c1.059 1.012 1.472 2.239 1.2 3.533-.222 1.079-.898 2.171-2.017 3.25l-5.65 5.439 2.534 2.423a7.92 7.92 0 011.237-.107z" fill="#5CB615" fill-rule="nonzero"/></svg>
